icons/window/new.svg

<?xml version="1.0" encoding="UTF-8" standalone="no"?>
<svg
   height="24"
   width="24"
   version="1.1"
   id="svg8"
   sodipodi:docname="new.svg"
   inkscape:version="1.1 (ce6663b3b7, 2021-05-25)"
   xmlns:inkscape="http://www.inkscape.org/namespaces/inkscape"
   xmlns:sodipodi="http://sodipodi.sourceforge.net/DTD/sodipodi-0.dtd"
   xmlns="http://www.w3.org/2000/svg"
   xmlns:svg="http://www.w3.org/2000/svg"
   xmlns:rdf="http://www.w3.org/1999/02/22-rdf-syntax-ns#"
   xmlns:cc="http://creativecommons.org/ns#"
   xmlns:dc="http://purl.org/dc/elements/1.1/">
  <metadata
     id="metadata14">
    <rdf:RDF>
      <cc:Work
         rdf:about="">
        <dc:format>image/svg+xml</dc:format>
        <dc:type
           rdf:resource="http://purl.org/dc/dcmitype/StillImage" />
      </cc:Work>
    </rdf:RDF>
  </metadata>
  <defs
     id="defs12" />
  <sodipodi:namedview
     pagecolor="#ffffff"
     bordercolor="#666666"
     borderopacity="1"
     objecttolerance="10"
     gridtolerance="10"
     guidetolerance="10"
     inkscape:pageopacity="0"
     inkscape:pageshadow="2"
     inkscape:window-width="1920"
     inkscape:window-height="1016"
     id="namedview10"
     showgrid="true"
     inkscape:snap-global="true"
     showguides="true"
     inkscape:guide-bbox="true"
     inkscape:zoom="32.000001"
     inkscape:cx="7.4218748"
     inkscape:cy="11.796875"
     inkscape:window-x="0"
     inkscape:window-y="27"
     inkscape:window-maximized="1"
     inkscape:current-layer="g6"
     showborder="true"
     inkscape:document-rotation="0"
     inkscape:pagecheckerboard="0"
     inkscape:snap-page="true">
    <inkscape:grid
       type="xygrid"
       id="grid3353" />
  </sodipodi:namedview>
  <g
     color="#000000"
     fill="#808080"
     id="g6">
    <g
       transform="matrix(1.2496949,0,0,1.2496949,-87.9741,-223.56578)"
       style="display:inline;stroke-width:0.800195"
       id="g3340">
      <path
         style="color:#000000;font-style:normal;font-variant:normal;font-weight:normal;font-stretch:normal;font-size:medium;line-height:normal;font-family:sans-serif;text-indent:0;text-align:start;text-decoration:none;text-decoration-line:none;text-decoration-style:solid;text-decoration-color:#000000;letter-spacing:normal;word-spacing:normal;text-transform:none;writing-mode:lr-tb;direction:ltr;baseline-shift:baseline;text-anchor:start;white-space:normal;clip-rule:nonzero;display:inline;overflow:visible;visibility:visible;opacity:1;isolation:auto;mix-blend-mode:normal;color-interpolation:sRGB;color-interpolation-filters:linearRGB;solid-color:#000000;solid-opacity:1;fill:#808080;fill-opacity:1;fill-rule:nonzero;stroke:none;stroke-width:3.20141;stroke-linecap:butt;stroke-linejoin:miter;stroke-miterlimit:4;stroke-dasharray:none;stroke-dashoffset:0;stroke-opacity:1;marker:none;color-rendering:auto;image-rendering:auto;shape-rendering:auto;text-rendering:auto;enable-background:accumulate"
         d="m 3.9492188,1 c -1.2441661,0.01457 -2.1540776,-0.0305543 -2.8984376,0.3847656 -0.3721749,0.20765 -0.66529095,0.5593899 -0.82812495,0.9980469 -0.162877,0.438661 -0.22265625,0.9595775 -0.22265625,1.6171875 v 4 5 c 0,0.65761 0.05982125,1.178515 0.22265625,1.617188 0.162824,0.438656 0.45595005,0.790386 0.82812495,0.998046 0.74436,0.415366 1.6542616,0.370266 2.8984376,0.384766 h 0.00391 1.9804688 4.0781254 0.488281 v -1.003906 c -0.179363,-4.9e-5 -0.299425,0.0039 -0.488281,0.0039 h -4.0781254 c -1.977707,0 -3.4457695,0.01562 -4.1796876,-0.224609 -0.9725179,-0.44721 -0.76562495,-1.775391 -0.76562495,-2.775391 8.41e-4,-2.123172 0.0371902,-5.676961 0.12499995,-8 h 4.8203126 4.0781254 4.820312 c 0.07104,1.8792334 0.101504,4.418833 0.113281,6.5 h 1 v -2.5 -4 c 0,-0.637994 -0.06005,-1.1785265 -0.222656,-1.6171875 -0.162834,-0.438657 -0.45595,-0.7903969 -0.828125,-0.9980469 -0.74436,-0.41531595 -1.654271,-0.3701956 -2.898437,-0.3847656 h -0.0039 -1.980469 -4.0781254 -1.9804688 z m 9.0546872,10.001953 v 2 h -2 v 1 h 2 v 2 h 1 v -2 h 2 v -1 h -2 v -2 z"
         transform="translate(71.996853,179.99766)"
         id="path5525-3" />
    </g>
  </g>
</svg>

<?xml version="1.0" encoding="UTF-8" standalone="no"?>
<svg
   xmlns:dc="http://purl.org/dc/elements/1.1/"
   xmlns:cc="http://creativecommons.org/ns#"
   xmlns:rdf="http://www.w3.org/1999/02/22-rdf-syntax-ns#"
   xmlns:svg="http://www.w3.org/2000/svg"
   xmlns="http://www.w3.org/2000/svg"
   xmlns:sodipodi="http://sodipodi.sourceforge.net/DTD/sodipodi-0.dtd"
   xmlns:inkscape="http://www.inkscape.org/namespaces/inkscape"
   height="16"
   width="16"
   version="1.1"
   id="svg8"
   sodipodi:docname="window-new-symbolic.svg"
   inkscape:version="0.92.5 (2060ec1f9f, 2020-04-08)">
  <metadata
     id="metadata14">
    <rdf:RDF>
      <cc:Work
         rdf:about="">
        <dc:format>image/svg+xml</dc:format>
        <dc:type
           rdf:resource="http://purl.org/dc/dcmitype/StillImage" />
        <dc:title />
      </cc:Work>
    </rdf:RDF>
  </metadata>
  <defs
     id="defs12" />
  <sodipodi:namedview
     pagecolor="#ffffff"
     bordercolor="#666666"
     borderopacity="1"
     objecttolerance="10"
     gridtolerance="10"
     guidetolerance="10"
     inkscape:pageopacity="0"
     inkscape:pageshadow="2"
     inkscape:window-width="1294"
     inkscape:window-height="704"
     id="namedview10"
     showgrid="true"
     inkscape:snap-global="true"
     showguides="true"
     inkscape:guide-bbox="true"
     inkscape:zoom="11.313709"
     inkscape:cx="-16.561415"
     inkscape:cy="7.4757688"
     inkscape:window-x="72"
     inkscape:window-y="27"
     inkscape:window-maximized="1"
     inkscape:current-layer="g6"
     showborder="false"
     inkscape:document-rotation="0">
    <inkscape:grid
       type="xygrid"
       id="grid3353" />
  </sodipodi:namedview>
  <g
     color="#000"
     fill="gray"
     id="g6">
    <g
       transform="translate(-71.996853,-179.99766)"
       style="display:inline"
       id="g3340">
      <path
         style="color:#000000;font-style:normal;font-variant:normal;font-weight:normal;font-stretch:normal;font-size:medium;line-height:normal;font-family:sans-serif;text-indent:0;text-align:start;text-decoration:none;text-decoration-line:none;text-decoration-style:solid;text-decoration-color:#000000;letter-spacing:normal;word-spacing:normal;text-transform:none;writing-mode:lr-tb;direction:ltr;baseline-shift:baseline;text-anchor:start;white-space:normal;clip-rule:nonzero;display:inline;overflow:visible;visibility:visible;opacity:1;isolation:auto;mix-blend-mode:normal;color-interpolation:sRGB;color-interpolation-filters:linearRGB;solid-color:#000000;solid-opacity:1;fill:#808080;fill-opacity:1;fill-rule:nonzero;stroke:none;stroke-width:4.00079155;stroke-linecap:butt;stroke-linejoin:miter;stroke-miterlimit:4;stroke-dasharray:none;stroke-dashoffset:0;stroke-opacity:1;marker:none;color-rendering:auto;image-rendering:auto;shape-rendering:auto;text-rendering:auto;enable-background:accumulate"
         d="M 3.9492188 1 C 2.7050527 1.01457 1.7951412 0.96944565 1.0507812 1.3847656 C 0.6786063 1.5924156 0.38549025 1.9441555 0.22265625 2.3828125 C 0.05977925 2.8214735 0 3.34239 0 4 L 0 8 L 0 13 C -3.7007434e-17 13.65761 0.05982125 14.178515 0.22265625 14.617188 C 0.38548025 15.055844 0.6786063 15.407574 1.0507812 15.615234 C 1.7951412 16.0306 2.7050428 15.9855 3.9492188 16 L 3.953125 16 L 5.9335938 16 L 10.011719 16 L 10.5 16 L 10.5 14.996094 C 10.320637 14.996045 10.200575 15 10.011719 15 L 5.9335938 15 C 3.9558868 15 2.4878243 15.015624 1.7539062 14.775391 C 0.7813883 14.328181 0.98828125 13 0.98828125 12 C 0.98912225 9.876828 1.0254714 6.323039 1.1132812 4 L 5.9335938 4 L 10.011719 4 L 14.832031 4 C 14.903066 5.8792334 14.933535 8.418833 14.945312 10.5 L 15.945312 10.5 L 15.945312 8 L 15.945312 4 C 15.945312 3.362006 15.885263 2.8214735 15.722656 2.3828125 C 15.559822 1.9441555 15.266706 1.5924156 14.894531 1.3847656 C 14.150171 0.96944965 13.24026 1.01457 11.996094 1 L 11.992188 1 L 10.011719 1 L 5.9335938 1 L 3.953125 1 L 3.9492188 1 z M 13.003906 11.001953 L 13.003906 13.001953 L 11.003906 13.001953 L 11.003906 14.001953 L 13.003906 14.001953 L 13.003906 16.001953 L 14.003906 16.001953 L 14.003906 14.001953 L 16.003906 14.001953 L 16.003906 13.001953 L 14.003906 13.001953 L 14.003906 11.001953 L 13.003906 11.001953 z "
         transform="translate(71.996853,179.99766)"
         id="path5525-3" />
    </g>
  </g>
</svg>
